X:234
T:Waltz. CJF.234
R:Waltz
S:C.J.Fox MS, 1829/33, Beverley,E.Yorks.
N:”C J Fox” is in the stave, after the tune. At the asterisk
N:position, it seems an extra bar is needed. I added a
N:suggested g4f2| – PJH.
B:Kidson Coll.Mitchell Lib.M1805
O:England
A:East Yorkshire
Z:vmp.P J Headford 2000 & 2008
M:3/4
L:1/8
Q:3/4=60
K:G
d2|B2″p”c2B2|A2d^cd=c|B2c2B2|A2z2g” f”b|\
bagfge|d4gb|baagaf|g4:|!
|:d2|(gf).g.d.B.G|{B}A2AGA2|(d^c).d.=c.B.A|{A}G2GFG2|\
(gf).g.d.B.G|{B}A2AGA2|d^cd=cBA|G4:|!
|:d2|gdBgba|{a}gfedcB|Adfac’a”*”|g4f2|\
gbagfa|gfedcB|Acfac’a|g4:|!
|:b2|^a2b2=a2|g2g2b2|\
^a2b2=a2|g2z2d2|gdBgba|gfedcB|Adfac’a|g4:|

